!!!COM: Anonim
!!!CDT: [?]
!!!OTL: Puer natus in Bethleem
!!!TXO: Latin
!!!ODT: 
!!!GTL: Hymnbook E
!!!ARL: Opactwo św. Wojciecha, Staniątki 
!!!voices:	3
**kern	**kern	**text	**kern	**text
*staff3	*staff2	*staff2	*staff1	*staff1
*I"Basso	*I"Canto II	*	*I"Canto I	*
=1-	=1-	=1-	=1-	=1-
*clefF4	*clefG2	*	*clefG2	*
*k[b-]	*k[b-]	*	*k[b-]	*
*M3/2	*M3/2	*	*M3/2	*
2GG	2g	Pu-	2g	Pu-
.	.	.	4aQ	.
2G	2b-	-er	2b-	-er
2G	2g	na-	2b-	na-
=2	=2	=2	=2	=2
.	.	.	ccQL	.
.	.	.	b-QJ	.
1D	1f#	-tus	1a	-tus
2D	2f#	in	2a	in
=3	=3	=3	=3	=3
1G	1g	Be-	1b-	Be-
2F	2a	-thle-	2cc	-thle-
=4	=4	=4	=4	=4
1.BB-	1.b-	-em	1.dd	-em
=5	=5	=5	=5	=5
!!linebreak:original
2G	2g	Un-	2b-	Un-
2D	2b-	-de	2dd	-de
2BB-	2b-	gau-	2dd	gau-
=6	=6	=6	=6	=6
.	.	.	eeQL	.
.	.	.	ddQJ	.
1F	1a	-det	1cc	-det
2F	2a	Ie-	2cc	Ie-
=7	=7	=7	=7	=7
1BB-	1b-	-ru-	1dd	-ru-
2BB-	2b-	-sa-	2dd	-sa-
=8	=8	=8	=8	=8
1F	1a	-lem	1cc	-lem
2F	2a	Lae-	2cc	Lae-
=9	=9	=9	=9	=9
1BB-	1b-	-ta-	1dd	-ta-
2BB-	2b-	-mi-	2dd	-mi-
=10	=10	=10	=10	=10
!!linebreak:original
.	.	.	eeQL	.
.	.	.	ddQJ	.
1F	1a	-ni	1cc	-ni
2F	2a	in	2cc	in
=11	=11	=11	=11	=11
.	.	.	b-QL	.
.	.	.	aQJ	.
1G	1g	Do-	1b-	Do-
2E	2g	-mi-	2b-	-mi-
=12	=12	=12	=12	=12
1F	1a	-no	1cc	-no
2F	2a	in	2cc	in
=13	=13	=13	=13	=13
1G	1g	hoc	1b-	hoc
2C	2e	no-	2cc	no-
=14	=14	=14	=14	=14
.	.	.	ddQL	.
.	.	.	ccQJ	.
2G	2g	-vo	2b-	-vo
1D	2.g	an-	1a	an-
.	4f#	.	.	.
=15	=15	=15	=15	=15
!!linebreak:original
.	.	.	b-QL	.
.	.	.	aQJ	.
1.GG	1.g	-no.	1.g	-no.
==:|!	==:|!	==:|!	==:|!	==:|!
*-	*-	*-	*-	*-
!!title: @{OTL}, @{GTL}: @{pag}, ed. @{ENC}
!!!pag: pp. 53v-54r
!!!GTL: Hymnbook E
!!!EFL: 
!!!YEM: Creative Commons CC/BY/NC/SA 4.0
!!!ENC: Marcin Konik
!!!END: 2015-05-04
!!!EED: Marcin Konik
!!!EEV: 
!!!ONB: Encoded in vim by Marcin Konik
!!!CharacterEncoding: utf-8
!!!RDF**kern: l=long note in original notation
!!!RDF**kern: i=editorial accidental
!!muse2ps: z14jc180F
